logos/insomnia.svg

<?xml version="1.0" encoding="UTF-8"?>
<svg width="256px" height="256px" viewBox="0 0 256 256" version="1.1" xmlns="http://www.w3.org/2000/svg" xmlns:xlink="http://www.w3.org/1999/xlink" preserveAspectRatio="xMidYMid">
    <defs>
        <linearGradient x1="49.9998025%" y1="100%" x2="49.9998025%" y2="0%" id="linearGradient-1">
            <stop stop-color="#7400E1" offset="0%"></stop>
            <stop stop-color="#4000BF" offset="100%"></stop>
        </linearGradient>
    </defs>
    <g>
        <path d="M128,249.4912 C195.0984,249.4912 249.492,195.0976 249.492,128 C249.492,60.90208 195.0984,6.508472 128,6.508472 C60.9024,6.508472 6.508792,60.90208 6.508792,128 C6.508792,195.0976 60.9024,249.4912 128,249.4912 Z" fill="#FFFFFF" fill-rule="nonzero"></path>
        <path d="M128,0 C57.30752,0 0,57.30752 0,128 C0,198.6928 57.30752,256 128,256 C198.6928,256 256,198.6928 256,128 C256,57.30752 198.6928,0 128,0 Z M128,13.01696 C191.5032,13.01696 242.9832,64.49664 242.9832,128 C242.9832,191.5032 191.5032,242.9832 128,242.9832 C64.49664,242.9832 13.01696,191.5032 13.01696,128 C13.01696,64.49664 64.49664,13.01696 128,13.01696 Z" fill="#4000BF" fill-rule="nonzero"></path>
        <path d="M129.4456,36.88136 C179.7696,36.88136 220.5648,77.67656 220.5648,128 C220.5648,178.3232 179.7696,219.1184 129.4456,219.1184 C79.12232,219.1184 38.32712,178.3232 38.32712,128 C38.32712,115.7016 40.76376,103.972 45.18064,93.2672 C51.62984,102.0496 62.03016,107.7512 73.76216,107.7512 C93.3328,107.7512 109.1968,91.8864 109.1968,72.3164 C109.1968,60.5844 103.496,50.18408 94.7128,43.73496 C105.4176,39.318 117.1472,36.88136 129.4456,36.88136 Z" fill="url(#linearGradient-1)"></path>
    </g>
</svg>

<svg width="256" height="256" xmlns="http://www.w3.org/2000/svg" preserveAspectRatio="xMidYMid">
	<defs>
		<linearGradient x1="50%" y1="100%" x2="50%" y2="0%" id="a">
			<stop stop-color="#7400E1" offset="0%"/>
			<stop stop-color="#4000BF" offset="100%"/>
		</linearGradient>
	</defs>
	<path d="M128 249.491c67.098 0 121.492-54.393 121.492-121.491S195.098 6.508 128 6.508C60.902 6.508 6.509 60.902 6.509 128c0 67.098 54.393 121.491 121.491 121.491Z" fill="#FFF"/>
	<path d="M128 0C57.308 0 0 57.308 0 128c0 70.693 57.308 128 128 128 70.693 0 128-57.307 128-128C256 57.308 198.693 0 128 0Zm0 13.017c63.503 0 114.983 51.48 114.983 114.983 0 63.503-51.48 114.983-114.983 114.983-63.503 0-114.983-51.48-114.983-114.983 0-63.503 51.48-114.983 114.983-114.983Z" fill="#4000BF"/>
	<path d="M129.446 36.881c50.324 0 91.119 40.796 91.119 91.119s-40.795 91.118-91.12 91.118c-50.323 0-91.118-40.795-91.118-91.118 0-12.298 2.437-24.028 6.854-34.733 6.449 8.783 16.85 14.484 28.581 14.484 19.57 0 35.435-15.865 35.435-35.435 0-11.732-5.701-22.132-14.484-28.581 10.705-4.417 22.434-6.854 34.733-6.854Z" fill="url(#a)"/>
</svg>
